X:1
T:Si la promesse
T:Jean Maillart
T:Source : Livre I de 25 chansons nouvelles à parties---Paris---N.du Chemin---1549. Editor : André Vierendeels  ( 08/02/18). Notes : Original clefs : G2, C2, C3, F3 Original note values have been halved Editorial accidentals above the stave Dotted brackets indicate black notes 
T:#
T:Si la promesse
T:©
T:©
T:©
C:Jean Maillart
Z:©
%%score [ 1 2 3 4 ]
L:1/8
Q:1/4=120
M:2/2
K:F
V:1 treble nm="Soprano" snm="S"
V:2 treble nm="Alto" snm="A"
V:3 treble-8 nm="Tenor" snm="T"
V:4 bass nm="Bass" snm="B"
V:1
 d4 g2 g2 | f3 e d2 c2 | B2 A2- AG G2- | G2 F2 G4 | z2 G2 B2 B2 | AGAB c2 d2 | d2 c2 d4 | %7
w: Si la pro-|mes- se m'est te-|nu- * * * *|* * e,|et en fem-|me _ _ _ _ gist|loy- aul- té,|
 z2 d2 d4 | c4 B2 B2 | A3 G A2 B2- | B2 AG F3 G | AB c2- cB B2- | B2 A2 B4- |[M:2/4] B4 |: z2 d2 | %15
w: i'au- ray|ma part en|sa _ _ beaul-|||* * té,|_|mon|
[M:2/2] g2 g2 f3 e | d2 c2 B2 A2- | AG G4 F2 |1 G2 d2 d4 :|2 AG G4 F2 || G8 |] %21
w: coeur l'a pour _|_ soy re- te-|nu- * * *|e mon coeur|nu- * * *|e.|
V:2
 G4 B2 B2 | A6 A2 | F2 F2 D4- | D4 B,2 D2 | E2 E2 D4- | D2 A2 A2 G2 | A4 z2 F2 | B8 | A4 G2 G2 | %9
w: Si la pro-|mes- se|m'est te- nu|_ e, et|en fem- me|_ gist loy- aul-|té, i'au-|ray|ma part en|
 F3 E/D/ C2 B,2 | G,4 A,2 B,2 | A,2 F2 D2 E2 | F4 z2 D2 |[M:2/4] G2 G2 |: F2 F2 | %15
w: sa _ _ _ beaul-|té, ma part|en sa beaul- *|té, mon|coeur l'a|pour soy|
[M:2/2] B2 B2 A4- | A4 F3 E | D2 C2 D4 |1 z2 D2 G2 G2 :|2 z8 ||"^#" D8 |] %21
w: re- te- nu-|||mon coeur l'a||e.|
V:3
 z4 d4 | d2 d2 f3 e | d2 c2 B2 AG | A4 G4- | G4 z2 d2 | f2 f2 e2 d2 | e2 e2 d4 | z2 f2 f4 | %8
w: Si|la pro- mes- se|m'est tenu- * * *|* e,|_ et|en fem- me gist|loy- aul- té,|i'au- ray|
 f4 d4- | d2 f2- fe d2- | d2 c2 d2 d2 | c2 A2 B4 |"^b" c4 B4 |[M:2/4] z2 d2 |: d4 | %15
w: ma part|_ en _ sa beaul-|* * té, en|sa _ beaul-|* té,|mon|coeur,|
[M:2/2] z2 d2 d2 d2 | f3 e d2 c2 | B2 AG A4 |1 G4 z2 d2 :|2 B2 AG A4 || G8 |] %21
w: l'a pour soy|re- * * te-|nu- * * *|e, mon|nu- * * *|e.|
V:4
 G,4 G,2 G,2 | D,6 A,2 | B,2 F,2 G,4 | D,4 z2 G,2 | C,2 C,2 G,2 G,2 | D,E,F,G, A,2 B,2 | %6
w: Si la pro-|mes- se|m'est te- nu-|e, et|en fem- me gist|loy- * * * * aul-|
 A,4 z2 B,2 | B,2 B,,2 B,,C,D,E, | F,2 F,2 G,2 G,2 | D,3 E, F,2 G,2 |"^b" E,4 D,2 B,,2 | F,4 G,4 | %12
w: té, i'au-|ray, i'au- ray _ _ _|_ ma part en|sa- * * beaul-|* té en|sa beaul-|
 F,4 z2 G,2 |[M:2/4] G,2 G,2 |:"^#" B,3 A, |[M:2/2] G,2 G,2 D,4- | D,2 A,2 B,2 F,2 | G,2 E,2 D,4 |1 %18
w: té, mon|coeur l'a|pour soy|re- te nu|_ _ _ _||
 B,2 G,2 G,2 G,2 :|2 D,2 G,2 G,2 G,2 || G,8 |] %21
w: e, mon coeur l'a|e, re- te- nu-|e|

